X:1
T:Title
%%score { ( 1 4 ) | ( 2 3 ) }
L:1/8
M:4/4
K:D
V:1 treble nm="Grand Piano"
V:4 treble 
V:2 bass 
V:3 bass 
V:1
 z4 z2[Q:1/4=100] [DF][EG] | [FA]2 [FA]>[FA] [FA]2 [DF]>[FA] | B2 B>B Bdc[DGB] | %3
 [DFA]2 [B,=F^G]>[B,FG] [A,^FA]2 [A,FA]>[A,DF] | [CE]2 [EG]>[DF] [CE]2 [DF][EG] | %5
 [FA]2 [FA]>[FA] [FA]2 [DF]>[FA] | B2 B>B BdcB | A2 d>d [Gc]2 [GB]>[Gc] |[M:3/4] [Fd]6 | %9
[M:1/4] F>G |[M:4/4] A4 [DF]2 z2 | B2 BB Bd [DAc]>[DGB] | A2 c2 [Ge]2 d>F | G4 [CE]2 z2 | %14
 A4 [DF]2 z2 | [DGB]2 [DGB]>[DGB] [DBd]3 d | cd [Ge]4 [Gc]2 |[M:3/4] d2- [Gd-]2 [Fd]2 |] %18
V:2
 z4 z2 [D,A,]2 | [D,D]2 [D,D]>[D,D] [D,D]2 [D,A,]>[D,D] | z4 .G2 z2[K:bass] | D,2 D,>D, D,2 D,>D, | %4
 [A,,A,]2 [A,,A,]>[A,,A,] [A,,A,]2 [D,A,]2 | [D,D]2 [D,D]>[D,D] [D,D]2 [D,A,]>[D,D] | z4 .G2 z2 | %7
 [A,DF]2 [A,F]>[A,F][K:bass] [A,,A,]2 [A,,A,]>[A,,A,] |[M:3/4] [D,A,]6 |[M:1/4] D>[K:treble]E | %10
[M:4/4] F4[K:bass] z4 | z4 .G2 z2 | G4 z4 | E4[K:bass] z4[K:treble] | F4[K:bass] z4 | %15
 G,2 G,>G, G,3[K:treble] [G,B,G] | [A,E][A,F][K:bass] [A,,A,]4 [A,,A,]2 |[M:3/4] A,2 z2 z2 |] %18
V:3
 x8 | x8 | [G,DG]2 [G,DG]>[G,DG] [G,D]-[G,-D-B][G,DA][K:bass]G, | x8 | x8 | x8 | %6
 [G,DG]2 [G,DG]>[G,DG] [G,D]-[G,-D-B][G,DA][G,DG] | x4[K:bass] x4 |[M:3/4] x6 | %9
[M:1/4] x3/2[K:treble] x/ |[M:4/4] z2[K:bass] D,>D, D,D, [D,A,]>[F,D] | %11
 [G,DG]2 [G,DG][G,DG] [G,D]-[G,DB] G,>G, | z2 A,>A, A,A, F>D | %13
 z2[K:bass] A,,>A,, A,,A,, D>[K:treble]E | z2[K:bass] D,>D, D,D, D,>D, | x7[K:treble] x | %16
 x2[K:bass] x6 |[M:3/4] D,2- [D,-B,]2 [D,A,]2 |] %18
V:4
 x8 | x8 | x8 | x8 | x8 | x8 | x8 | x8 |[M:3/4] x6 |[M:1/4] x2 |[M:4/4] z2 D>D A,A, [Fd]>[Ac] | %11
 x8 | x8 | z2 A,>A, A,A, F>G | z2 D>D A,A, [DFA]>[DFA] | x8 | x8 |[M:3/4] F2 z2 z2 |] %18

